build/category/LayersSolid.svg

<svg xmlns="http://www.w3.org/2000/svg" fill="none" viewBox="0 0 24 24" focusable="false"><path d="M0 0H24V24H0z"/><path fill="#74767B" d="M3.52704 15.0093L10.3677 18.4296C11.3952 18.9434 12.6047 18.9434 13.6323 18.4296L20.4729 15.0093L21.0459 15.2958C21.5986 15.5722 21.5986 16.361 21.0459 16.6374L13.6323 20.3442C12.6047 20.858 11.3952 20.858 10.3676 20.3442L2.95408 16.6374C2.4013 16.361 2.40129 15.5722 2.95408 15.2958L3.52704 15.0093Z"/><path fill="#74767B" d="M3.52693 11.0404L10.3677 14.4608C11.3952 14.9746 12.6047 14.9746 13.6323 14.4608L20.473 11.0404L21.1157 11.3617C21.6684 11.6381 21.6684 12.427 21.1157 12.7034L13.6323 16.445C12.6047 16.9588 11.3952 16.9588 10.3677 16.445L2.88432 12.7034C2.33153 12.427 2.33153 11.6381 2.88432 11.3617L3.52693 11.0404Z"/><path fill="#74767B" d="M3.52693 11.0404L10.3677 14.4608C11.3952 14.9746 12.6047 14.9746 13.6323 14.4608L20.473 11.0404L21.1157 11.3617C21.6684 11.6381 21.6684 12.427 21.1157 12.7034L13.6323 16.445C12.6047 16.9588 11.3952 16.9588 10.3677 16.445L2.88432 12.7034C2.33153 12.427 2.33153 11.6381 2.88432 11.3617L3.52693 11.0404Z"/><path fill="#74767B" d="M13.6323 3.65158C12.6047 3.13779 11.3952 3.13779 10.3677 3.65158L2.88432 7.39325C2.33153 7.66964 2.33153 8.4585 2.88432 8.73489L10.3677 12.4766C11.3952 12.9903 12.6047 12.9903 13.6323 12.4766L21.1157 8.73488C21.6684 8.45849 21.6684 7.66964 21.1157 7.39325L13.6323 3.65158Z"/><path fill="#74767B" d="M13.6323 3.65158C12.6047 3.13779 11.3952 3.13779 10.3677 3.65158L2.88432 7.39325C2.33153 7.66964 2.33153 8.4585 2.88432 8.73489L10.3677 12.4766C11.3952 12.9903 12.6047 12.9903 13.6323 12.4766L21.1157 8.73488C21.6684 8.45849 21.6684 7.66964 21.1157 7.39325L13.6323 3.65158Z"/></svg>

<svg xmlns="http://www.w3.org/2000/svg" fill="none" viewBox="0 0 24 24" focusable="false"><g fill="#74767B"><path d="m3.52 15 6.84 3.42c1.03.52 2.24.52 3.27 0L20.47 15l.57.29c.55.28.55 1.07 0 1.34l-7.41 3.71c-1.03.51-2.24.51-3.27 0l-7.41-3.71c-.55-.27-.55-1.06 0-1.34z"/><path d="m3.52 11.04 6.84 3.42c1.03.51 2.24.51 3.27 0l6.84-3.42.64.32c.55.27.55 1.06 0 1.34l-7.48 3.74c-1.03.51-2.24.51-3.27 0L2.88 12.7c-.55-.28-.55-1.07 0-1.34z"/><path d="M13.63 3.65a3.62 3.62 0 0 0-3.27 0L2.88 7.39c-.55.27-.55 1.06 0 1.34l7.48 3.74c1.03.52 2.24.52 3.27 0l7.48-3.74c.55-.28.55-1.07 0-1.34z"/></g></svg>
